X:160
T:160  The Souters of Selkirk  (HJ)
A:Wyresdale, Lancashire
S:Souters were shoe-makers who fought at Flodden Field in 1513.
S:Up wi' the souters of Selkirk,And down wi' the earl of Home;
S:And up wi' a' the braw lads, That sew the single-soled shoon.
S:Fye upon yellow and yellow,And fye upon yellow and green,
S:But up wi the true blue and scarlet, And up wi' the single-soled sheen.
S:Up wi the souters of Selkirk,For they are baith trusty and leal;
S:And up wi the men o the Forest, And down wi the Merse to the deil.
S:original in 3/4
S:in Airds2 (identical in 3/4)
B:H.S.J. Jackson, 1823
L:1/16
M:9/8
K:G
A2|Bcd2e2 d2B2g2 edcBAG|Bcd2e2 d2B2g2 f4A2 |
Bcd2e2 d2B2g2  edcBAG|  c3de2  d2B2g2 f4 :|
|:A2|g2G2B2  g2agfe  d2cBAG | g2G2B2 g2agfe  f4A2 |
g2G2B2  g2agfe dgdBAG | c3de2  d2B2g2  f4 :|





